images/projects/metadata.svg

<?xml version="1.0" encoding="UTF-8" standalone="no"?>
<svg width="487px" height="489px" viewBox="0 0 487 489" version="1.1" xmlns="http://www.w3.org/2000/svg" xmlns:xlink="http://www.w3.org/1999/xlink" xmlns:sketch="http://www.bohemiancoding.com/sketch/ns">
    <!-- Generator: Sketch 3.3.3 (12081) - http://www.bohemiancoding.com/sketch -->
    <title>metadata</title>
    <desc>Created with Sketch.</desc>
    <defs></defs>
    <g id="Page-1" stroke="none" stroke-width="1" fill="none" fill-rule="evenodd" sketch:type="MSPage">
        <path d="M387,310 L387,186 L243.779039,258.699821 L243.779039,126.25 L487,1 L487,392 L299,488 L299,355 L387,310 Z" id="right" fill="#DFE1E8" sketch:type="MSShapeGroup"></path>
        <path d="M102,186 L244,258.699821 L244,126.25 L1,1 L1,392 L189,488 L189,355 L102,310 L102,186 L102,186 Z" id="left" stroke="#DFE1E8" fill="#4F5B66" sketch:type="MSShapeGroup"></path>
    </g>
</svg>

<svg width="487" height="489" viewBox="0 0 487 489" xmlns="http://www.w3.org/2000/svg"><title>metadata</title><g fill="none" fill-rule="evenodd"><path d="M387 310V186l-143.2 72.7V126.3L487 1v391l-188 96V355l88-45z" fill="#DFE1E8"/><path d="M102 186l142 72.7V126.3L1 1v391l188 96V355l-87-45V186z" stroke="#DFE1E8" fill="#4F5B66"/></g></svg>
